!!!!SEGMENT: pl-kk--kk-i-216_anonim--non-turbetur-cor-vestrum.krn
!!!cenid: 16xx:771
!!!COM: Anonim
!!!COM-rismID: pe30004985
!!!CDT:
!!!CNT:
!!!OTL: Non turbetur cor vestrum
!!!PDT:
!!!AGN: Sacred
!!!SMS-siglum: PL-Kk
!!!SMS-shelfmark: Kk.I.216
!!!SMS-shelfwork: W
!!!SMS-variant:
!!!SMS-altvar:
!!!NIFC-rismSourceID: 1001143681
!!!NIFC-rismChildID: 1001143681
!!!NIFC-islandoraID: pl-kk:4271
!!!URL-pdf-islandora: https://repozytorium.nifc.pl/islandora/object/pl-kk%3A4271/datastream/PDF/view
!!!URL-scan: https://polish.musicsources.pl/pl/lokalizacje/galeria/rekopisy/5841 @EN{Scan on Polish Music Sources Website} @PL{Skany w portalu Dziedzictwo Muzyki Polskiej w otwartym dostępie}
!!!IIIF:
!!!ONB-nifc:
!!!AIN: 1 empty
!!!key:
**kern	**text
*Iempty	*
*I"Baſso Ripieno	*
*I'B rip	*
*clefF4	*
*k[b-]	*
*F:	*
*M2/1	*
*met(c|)	*
=1-	=1-
!LO:TX:t=P:problem=kreska  pseudotaktowa	!
!LO:TX:t=P:problem=przy kluczu BB- B-	!
1rA	.
1C/	Non
=2-	=2-
*2\right	*
!	!
2D\	tur-
1F\	-be-
!LO:TX:t=P:problem=kreska  pseudotaktowa	!
2E\	.
=3-	=3-
!LO:TX:t=P:problem=kreska  pseudotaktowa	!
1F\	-tur
00r	.
=4-	=4-
.	.
=5-	=5-
.	.
!LO:TX:t=P:problem=kreska  pseudotaktowa	!
1C/	Cor
=6-	=6-
1F\	ve-
!LO:TX:t=P:problem=kreska  pseudotaktowa	!
1C/	-ſtrum
=7-	=7-
0r	.
=8-	=8-
!LO:TX:t=P:problem=kreska  pseudotaktowa	!
1r	.
1C/	non
=9-	=9-
2D\	tur-
1F\	-be-
!LO:TX:t=P:problem=kreska  pseudotaktowa	!
2E\	.
=10-	=10-
2F\,<	-tur
2.C/	cor
4D\	.
4E\	.
!LO:TX:t=P:problem=kreska  pseudotaktowa	!
4C\	.
=11-	=11-
1G\	ve-
!LO:TX:t=P:problem=kreska  pseudotaktowa	!
1C/	-strum
=12-	=12-
!LO:TX:t=P:problem=kreska  pseudotaktowa	!
00r	.
=13-	=13-
.	.
=14-	=14-
!LO:TX:a:t=2	!
!LO:TX:t=P:problem=kreska  pseudotaktowa	!
00F\	Non
=15-	=15-
.	.
=16-	=16-
1D\	tur-
!LO:TX:t=P:problem=kreska  pseudotaktowa	!
1C/	-be-
!LO:LB:g=original	!
=17-	=17-
0BB-/,<	-tur
=18-	=18-
1AA/	Cor
1C/	ve-
=19-	=19-
!LO:TX:t=P:problem=kreska  pseudotaktowa	!
1F\	-stru(m)
2rBB	.
2C/	ne-
=20-	=20-
2D\	-q(ue)
2D\	for-
0F	-mi-
=21-	=21-
.	.
!LO:TX:t=P:problem=kreska  pseudotaktowa	!
1C/,<	-det
=22-	=22-
0r	.
=23-	=23-
2r	.
2G\	cre-
2E\	-di-
!LO:TX:t=P:problem=kreska  pseudotaktowa	!
2F\	-tis
=24-	=24-
2.C/	in
4D\	.
2E\	DE-
!LO:TX:t=P:problem=kreska  pseudotaktowa	!
[<2G\	.
=25-	=25-
!LO:N:xstem:cue	!
4G\]	.
4C/	.
4F\	.
!LO:TX:t=P:problem=kreska  pseudotaktowa	!
4G\	.
1A\	.
=26-	=26-
!LO:TX:t=P:problem=kreska  pseudotaktowa	!
1G\	-UM
2r	.
1F	.
=27-	=27-
.	.
!LO:TX:t=P:problem=kreska  pseudotaktowa	!
2E\	.
2C/	cre-
2D/	-di-
=28-	=28-
2.C/	-tis
4BB-/	.
2AA/	in
!LO:TX:t=P:problem=kreska  pseudotaktowa	!
2GG/	DE-
!LO:LB:g=original	!
=29-	=29-
!LO:TX:t=P:problem=kreska  pseudotaktowa	!
0.C	-UM
=30-	=30-
.	.
00r	.
=31-	=31-
.	.
=32-	=32-
.	.
1C/	et
=33-	=33-
1D\	in
1F\	me
=34-	=34-
2E\	cre-
2F\	-di-
!LO:TX:t=P:problem=kreska  pseudotaktowa	!
0.C	-te
=35-	=35-
.	.
=36-	=36-
00r	.
=37-	=37-
.	.
=38-	=38-
!LO:TX:t=P:problem=kreska  pseudotaktowa	!
0r	.
=39-	=39-
2r	.
!LO:TX:t=P:problem=kreska  pseudotaktowa	!
2F\	in
*lig	*
1A\	Do-
=40-	=40-
1B-\	.
*Xlig	*
2A\,<	-mo
1F	Pa-
=41-	=41-
.	.
2A\	-tris
1G\	me-
=42-	=42-
!LO:TX:t=P:problem=kreska  pseudotaktowa	!
1F\	-i
0r	.
=43-	=43-
.	.
2r	.
!LO:TX:t=P:problem=kreska  pseudotaktowa	!
2G\	in
=44-	=44-
*lig	*
1A\	do-
1B-\	.
*Xlig	*
=45-	=45-
2A\	-mo
1F\	Pa-
!LO:TX:t=P:problem=kreska  pseudotaktowa	!
2A\	-tris
=46-	=46-
1G\	me-
!LO:TX:t=P:problem=kreska  pseudotaktowa	!
0F	-i
=47-	=47-
.	.
!LO:LB:g=original	!
1rA	.
=48-	=48-
2rF	.
1F\	man-
2A\	-ſi-
=49-	=49-
1G\	-o-
2E\	-nes
1F	mul-
=50-	=50-
.	.
!LO:TX:t=P:problem=kreska  pseudotaktowa	!
2D/	.
!LO:TX:a:t=2	!
!LO:TX:t=P:problem=kreska  pseudotaktowa	!
00C\	-tae
=51-	=51-
.	.
=52-	=52-
.	.
1F\	Do-
=53-	=53-
1G\	-mi-
!LO:TX:t=P:problem=kreska  pseudotaktowa	!
1A\	-ne
=54-	=54-
0r	.
=55-	=55-
!LO:TX:t=P:problem=kreska  pseudotaktowa	!
1r	.
2r	.
*	*ij
1F	Do-
=56-	=56-
.	.
!LO:TX:t=P:problem=kreska  pseudotaktowa	!
2E\	-mi-
2D/,<	-ne
*	*Xij
!LO:TX:t=P:problem=kreska  pseudotaktowa	!
2D/	o-
=57-	=57-
2.B-X\	-sten-
!LO:TX:t=P:problem=kreska  pseudotaktowa	!
4B-\	-de
2A\	no-
2A\	-bis
=58-	=58-
!LO:TX:t=P:problem=kreska  pseudotaktowa	!
1G\	Pa-
2F\,<	-trem
!LO:TX:t=P:problem=kreska  pseudotaktowa	!
2F\	o-
=59-	=59-
2D\	-sten-
!LO:TX:t=P:problem=kreska  pseudotaktowa	!
2E\	-de
2F\	no-
2F\	-bis
=60-	=60-
!LO:TX:t=P:problem=kreska  pseudotaktowa	!
1C/	Pa-
!LO:LB:g=original	!
2F\,<	-trem
2F\	et
=61-	=61-
1C/	suf-
2BB-/	-fi-
2C/	-cit
=62-	=62-
1GG/	no-
!LO:N:vis=00	!
1C\;	-bis.
=63||-	=63||-
*M2/1	*
*met(c|)	*
00r	.
=64-	=64-
.	.
=65-	=65-
00r	.
=66-	=66-
.	.
=67-	=67-
0r	.
=68-	=68-
!LO:TX:t=P:problem=kreska  pseudotaktowa	!
1r	.
1AA/	Phi-
=69-	=69-
1C/	-lip-
!LO:TX:t=P:problem=kreska  pseudotaktowa	!
1F\	-pe
=70-	=70-
2r	.
2.F\	qui
4E\	.
4D\	.
!LO:TX:t=P:problem=kreska  pseudotaktowa	!
4C\	.
=71-	=71-
4BB-X/	.
4AA/	.
!LO:TX:t=P:problem=kreska  pseudotaktowa	!
2D\	vi-
2.F\	.
4E\	.
=72-	=72-
2D\	-det
2D\	me.
!LO:TX:t=P:problem=kreska  pseudotaktowa	!
0.C	.
=73-	=73-
.	.
=74-	=74-
0r	.
=75-	=75-
1C/	vi-
2F\,<	-det
!LO:TX:t=P:problem=kreska  pseudotaktowa	!
2C/	et
!LO:LB:g=original	!
=76-	=76-
2D\	Pa-
!LO:TX:t=P:problem=kreska  pseudotaktowa	!
2F\	-trem
1C/	me-
=77-	=77-
!LO:TX:t=P:problem=kreska  pseudotaktowa	!
1F\	-um
0r	.
=78-	=78-
.	.
!LO:TX:t=P:problem=kreska  pseudotaktowa	!
1r	.
=79-	=79-
1.C/	Tan-
!LO:TX:t=P:problem=kreska  pseudotaktowa	!
2C/	-to
=80-	=80-
2F\	tem-
!LO:TX:t=P:problem=kreska  pseudotaktowa	!
2F\	-po-
2D\,<	-re
2AA/	vo-
=81-	=81-
2BB-/	-bis-
!LO:TX:t=P:problem=kreska  pseudotaktowa	!
2C/	-cum
2FF/,<	sum
1C	Tan-
=82-	=82-
.	.
!LO:TX:t=P:problem=kreska  pseudotaktowa	!
2C/	-to
2F\	tem-
2F\	-po-
=83-	=83-
2D\	-re
2E\	vo-
2F\	-biſ-
!LO:TX:t=P:problem=kreska  pseudotaktowa	!
2G\	-cum
=84-	=84-
2C/	sum
!LO:TX:t=P:problem=kreska  pseudotaktowa	!
2r	.
0r	.
=85-	=85-
.	.
!LO:TX:t=P:problem=kreska  pseudotaktowa	!
1r	.
!LO:LB:g=original	!
=86-	=86-
1F\	et
2E\	non
2F\	co-
=87-	=87-
2G\	-gno-
1A\	-viſ-
!LO:TX:t=P:problem=kreska  pseudotaktowa	!
2F\	-tis
=88-	=88-
0C/,<	me
=89-	=89-
1GG/	Phi-
1C/	-lip-
=90-	=90-
2FF/,<	-pe
2F\	qui
2E\	vi-
2C/	-det
=91-	=91-
!LO:TX:t=P:problem=kreska  pseudotaktowa	!
1G\,<	me
0r	.
=92-	=92-
.	.
2r	.
!LO:TX:t=P:problem=kreska  pseudotaktowa	!
2C/	Phi-
=93-	=93-
1E\	-lip-
1D\,<	-pe
=94-	=94-
!LO:TX:t=P:problem=kreska  pseudotaktowa	!
1F\	qui
2E\	vi-
2C/	-det
=95-	=95-
1GG/	me
!LO:TX:t=P:problem=kreska  pseudotaktowa	!
1C/	vi-
=96-	=96-
2G\	-det
2E\	et
2F\	Pa-
*custos:C	*
!LO:TX:t=P:problem=kreska  pseudotaktowa	!
2D/	-trem
!LO:LB:g=original	!
=97-	=97-
1C/	me-
!LO:TX:t=P:problem=kreska  pseudotaktowa	!
1F\,<	-um
=98-	=98-
1r	.
0C	Phi-
=99-	=99-
.	.
1D\	-lip-
=100-	=100-
!LO:TX:t=P:problem=kreska  pseudotaktowa	!
1C/	-pe
2r	.
2F\	qui
=101-	=101-
2E\	vi-
!LO:TX:t=P:problem=kreska  pseudotaktowa	!
2C/	-det
1G\	me
=102-	=102-
!LO:TX:t=P:problem=kreska  pseudotaktowa	!
1F\	vi-
2E\	-det
2E\	et
=103-	=103-
2.A\	Pa-
4G\	.
2F\	-trem
!LO:TX:t=P:problem=kreska  pseudotaktowa	!
2E\	me-
=104-	=104-
1D\	.
!LO:TX:t=P:problem=kreska  pseudotaktowa	!
0C,<	-um
=105-	=105-
.	.
0r	.
=106-	=106-
.	.
!LO:TX:t=P:problem=kreska  pseudotaktowa	!
1r	.
=107-	=107-
2.C/	Al-
4BB-/	.
4AA/	.
4GG/	.
1FF	.
=108-	=108-
.	.
!LO:TX:t=P:problem=kreska  pseudotaktowa	!
2C/	-le-
!LO:LB:g=original	!
4D\	-lu-
4E\	.
2F\	.
=109-	=109-
!LO:TX:t=P:problem=kreska  pseudotaktowa	!
0C/	-ia
=110-	=110-
2r	.
2.G\	a-
4F\	.
4E\	.
!LO:TX:t=P:problem=kreska  pseudotaktowa	!
4D\	.
=111-	=111-
2C/	-l-
2GG/	.
1D\	-le-
=112-	=112-
0C/	-lu-
=113-	=113-
0FF/;	-ia.
==	==
*-	*-
!!!RDF**kern: < = below
!!!ENC: Marta Lawrence
!!!END: 2021-03-01
!!!ENC: Andrzej Kubiczek
!!!END: 2021-02-17
!!!YEC: Copyright 2022 Narodowy Instytut Fryderyka Chopina (https://polishscores.org)
!!!YEM: License CC-BY-4.0 (https://creativecommons.org/licenses/by/4.0)
